X:1
T:Title
%%score { 1 | 2 }
L:1/8
M:4/4
K:Ab
V:1 treble nm="Grand Piano"
V:2 bass 
V:1
 z4 z2[Q:1/4=100] [CE]2 | [CE]3 [CE] [DF]>[CE] [EA]>B | c6 [Fd]2 | c2 B4 E>B |[M:3/4] [CA]6 | %5
[M:1/4] [CE]2 |[M:4/4] [CE]3 [CE] [DF]>[CE] [EA]>B | c6 [Fd]2 | c2 B4 E>B |[M:3/4] [CA]6 | %10
[M:1/4] c2 |[M:4/4] [Ge]2 [GB]4 [GB]>[Bd] | [EAc]6 [EAc]2 | [EGB]3 [B,FA] [B,EG]2 [A,=DF]2 | %14
[M:3/4] [A,=DF]2 [G,E]4 |[M:1/4] [G,DE]2 |[M:4/4] [CE]3 [CE] [DF]>[CE] [EA]>B | c6 [Fd]2 | %18
 c2 B4 E>B |[M:3/4] [CA]6 |] %20
V:2
 z4 z2 [A,,A,]2 | [A,,A,]3 [A,,A,] [A,,A,]>[A,,A,] [C,A,]>[E,G,E] | [A,E]6 [D,A,]2 | %3
 [E,A,E]2 [E,G,D]4 [E,G,D]>[E,G,D] |[M:3/4] [A,,A,]6 |[M:1/4] [A,,A,]2 | %6
[M:4/4] [A,,A,]3 [A,,A,] [A,,A,]>[A,,A,] [C,A,]>[E,G,E] | [A,E]6 [D,A,]2 | %8
 [E,A,E]2 [E,G,D]4 [E,G,D]>[E,G,D] |[M:3/4] [A,,A,]6 |[M:1/4] [A,E]2 | %11
[M:4/4] [E,B,]2 [E,E]4 [E,E]>[E,E] | A,6 A,,2 | B,,3 B,, B,,2 B,,2 |[M:3/4] B,,2 E,4 |[M:1/4] E,2 | %16
[M:4/4] [A,,A,]3 [A,,A,] [A,,A,]>[A,,A,] [C,A,]>[E,G,E] | [A,E]6 [D,A,]2 | %18
 [E,A,E]2 [E,G,D]4 [E,G,D]>[E,G,D] |[M:3/4] [A,,A,]6 |] %20

